X:1
T:Noel, noel, noel
T:Antoine Busnois (c. 1430-November, 1492) 
T:Noel, noel, noel
C:Antoine Busnois (c. 1430-November, 1492)
C:
%%score 1 2 3 4
L:1/8
M:4/4
K:Bb
V:1 treble nm="Soprano"
V:2 treble nm="Alto"
V:3 treble-8 nm="Contra"
V:4 bass nm="Bass"
V:1
|:"^130" G12- | G4 G8 | F4 A4 G4 | F8 G4 | =E4 ^F4- F2 E2 | G12 | z8 G4 | F6 G2 A4 | B6 A2 G4 | %9
w: No-|* el,-|no- * *|el,- no-||el,-|No~\--|el, _ no-|el, _ _|
 F8 G4- | G12 | ^F12 | z8 | F4 F4 =E4 | D8 A4 | A4 G2 G2- G2 F2 | A12- | A8 z4 | F4 G4 A4 | B8 A4 | %20
w: no- *||el.-||No~\-- el, _|_ no-|el, _ no- * *|el.|_|No- * *|el,- no-|
 G8 ^F4 | G6 F2 G2 A2 | F2 G4 =E2 ^F4 | G12 :| %24
w: el,- no-||* * * el.|_|
V:2
|: D12- | D4 D8 | D8 G,4 | A,8 G,4 | G,4 D8 | D12 | z8 B,4 | D8 C4 | B,8 C4 | D8 E4- | E12 | D12 | %12
w: No-|* el,-|no- *|el, _|no- *|el.-|No~\--|el,- no~\--|el, _|no- *||el.-|
 z8 | A12 | F4 G4 =E4 | F4 D4 E4 | C4 D8- | D8 z4 | D4 G,4 C4 | B,8 F4 | D4 E4 D4 | B,4 D4 E4 | %22
w: |No-|el, _ no~\--|el, _ no-|* el.|_|No- * *|el,- no-|el, _ _|no- * *|
 D2 D4 C2 D4 | D12 :| %24
w: el,- no- * *|el.-|
V:3
|: G12- | G4 B8 | A6 B2 c4 | d8 B4 | c4 A8 | G12 | z8 d4 | d4 B4 A4 | F4 G8 | A8 c4- | c12 | A12 | %12
w: No-|* el,-|no- * *|el,- no-||el.-|No~\--|el, _ no-|el _|no- *||el.-|
 z8 | d4 d4 c4 | d8 c4 | A4 B6 A2 | A12- | A8 z4 | A4 B2 c4 A2 | G4 d6 c2 | B4 A8 | %21
w: |No~\-- el,- no~\--|el,- no~\--|el,- no- *|el.|_|No- * * *|el,- no- *|el, _|
 G2 B4 A2 B2 c2 | A2 B4 G2 A4 | G12 :| %24
w: no- * * * *|* * * el.|_|
V:4
|: G,,12- | G,,4 G,8 | D,4 F,4 E,4 | D,8 E,4 | C,4 D,8 | G,,12 | z8 G,4 | D,6 E,2 F,4 | B,,4 E,8 | %9
w: No-|* el,-|no- * *|el,- no-||el.-|No-|el, _ no-|el, _|
 D,8 C,4- | C,12 | D,12 | z8 | D,4 D,4 A,4 | B,4 G,4 A,4 | F,4 G,4 E,4 | F,4 D,8- | D,8 z4 | %18
w: no- *||el.-||No~\-- el,- no-|el, _ no-|el, _ no-|* el,|_|
"^Edited by Virginia Kaycoff, 11/2010. Freely available for public distribuion." D,4 E,4 F,4 | %19
w: No- * *|
 G,8 F,4 | G,4 C,4 D,4 | z2 G,4 D,2 G,2 C,2 | D,2 B,,2 E,4 D,4 | G,,12 :| %24
w: el,- no-|el, _ _|no- * * *||el.-|

